X:548
T: EINE HAND VOLL ERDE
N: F1067
O: Europa, Mitteleuropa, Deutschland
R: Trauer -, Bregraebnis -, Trost - Lied
M: 2/4
L: 1/8
K: F
 | AABB | c2Az
BBAA | A2Gz
AABB | c2dz
ccEE | F3z
AABB | c2Az
BBAA | A2Gz
AABB | cf2d
ccEE | F2z2

